X: 1
T: John of Badenyon
T: Old Time Wedding Reel #1 (Cape Breton)
B: Dunlay/Greenberg Collection
Z: Arr. T. Traub 7-10-03
R: reel
M: 4/4
K: Am
L: 1/8
B [|\
"Am"AGEG AGEA | "Am"cdcA "G"G2 GB | "Am"~A2cd edcG | "Am"ABcd "Em"e2 eg | "Am"abag egdB |
"C"cAGE c2 cd | "C"edcA GEcE | "Em"~D2EG "Am"A4 |]| "Am"ageg agea | "G"gede g2 gb |
"Am"agea gbed | "Am"cAcd "Em"e2 eg | "Am"abag egdB | "C"cAGE c2 cd | "C"edcA GEcE | "Em"~D2EG "Am" A4 |]

%%sep 1 1 500

